X: 18006
T: Hughie Wentzell's
R: polka
M: 2/4
K: Gmajor
DG EG/E/|DG EG/E/|DG BA|DG BA|
DG EG/E/|DG EG/E/|DG BA|EF G2:|
|:DG DG|FA A2|DD GA|BG Bc|
d2 cB|B A2 B/A/|BG EF|G2 G2:|

